X: 1
T:Bannocks O' Barley Meal  "CYMRU"
M:12/8
L:1/8
Q:80
C:
S:March
K:HP
:| {g}f3/2e/2|
{Gdc}d3/2e/2d{gde}d3/2B/2{d}G{g}A3/2B/2{G}A{GAG}A3/2B/2c|
{Gdc}d3/2e/2d{gde}d3/2B/2{d}G{gAd}A2{gf}g{fg}f2e| |  !
{Gdc}d3/2e/2d{gde}d3/2B/2{d}G{g}A3/2B/2{G}A{GAG}A2{gf}g|
{fg}f3/2e/2f{gde}d2{GAG}A{g}B3/2c/2d{gdc}d:| |:
{g}A|  !
{Gdc}d3/2{g}f/2a{g}a3/2f/2d{g}c2{GdG}e{gef}e3/2c/2{d}A|
{Gdc}d3/2{g}f/2a{g}a3/2f/2d{gdc}d3/2f/2a{g}a2A| |
{Gdc}d3/2{g}f/2a{g}a3/2f/2d{g}c2{GdG}e{gef}e3/2f/2g|  !
{fg}f3/2e/2f{gde}d2{GAG}A{g}B3/2c/2d{gdc}d:|
